X:1
T:Agnus Dei - Agazzari
T:#
%%score 1 2 3
L:1/8
Q:1/4=84
M:4/4
K:Bb
V:1 treble nm="Soprano" snm="S"
V:2 treble nm="Alto" snm="A"
V:3 treble-8 nm="Tenor" snm="T"
V:1
"^Agnus Dei""^Agostino Agazzari\n (1578-1640)""^Arr. James Gibb from \nLitany of the BVM" z8 | %1
w: |
 z4 f4- | f2 d2 B4 | G2 G2 c2 cc | _A2 A2 G4 |[M:4/4] B2 B3 Gc_A | G4 F2 A2- | A2 A2 B2 BB | %8
w: A\-|* gnus De-|i, qui tol- lis pec-|ca- ta mun-|di, mi- se- re- re|no- bis. A\-|* gnus De- i, qui|
 c2 cB c2 B2 | _A4 G4 | z8 | z4 B4- | B2 B2 B4 | _A4 z4 | z2 B2 G2 GB | c2 c2 _A4 | G4 z2 B2- | %17
w: tol- lis pec- ca- ta|mun- di.||A\-|* gnus De-|i,|qui tol- lis pec-|ca- ta mun-|di, do\-|
 B2 B2 B4 | F2[Q:1/4=82] f4[Q:1/4=79] f2 |[Q:1/4=77] f4[Q:1/4=75] A2[Q:1/4=73] (B2- | %20
w: * na no-|bis, do- na|no- bis pa\-|
[Q:1/4=72] B2[Q:1/4=70] A2)[Q:1/4=70] B8 |] %21
w: * * cem.|
V:2
 z8 | B6 A2 | F4 G2 G2 | B2 BB E2 E2 | F4 B4 |[M:4/4] z8 | z4 z2 F2- | F2 F2 F2 FG | _A2 AB A2 G2 | %9
w: |A- gnus|De- i, qui|tol- lis pec- ca- ta|mun- di.||A\-|* gnus De- i, qui|tol- lis pec- ca- ta|
 F4 E4 | z2 z G B2 _AG | F4 G4 | G2 F2 G4 | E4 z2 _A2 | F2 FF B2 G2 | (FE/D/ E4 D2) | E2 G4 G2 | %17
w: mun- di,|mi- se- re- re|no- bis.|A- gnus De-|i, qui|tol- lis pec- ca- ta|mun\- * * * *|di, do- na|
 G4 F4 | z2 D4 F2 | B2 F2 F4- | F4 F8 |] %21
w: no- bis,|do- na|no- bis pa\-|* cem.|
V:3
 f6 d2 | B4 c2 c2 | d2 dd e4- | e2 d2 (cd e2- | e2 d2) e2 g2- |[M:4/4][K:treble-8] g2 f2 g2 f2 | %6
w: A- gnus|De- i, qui|tol- lis pec- ca\-|* ta mun\- * *|* * di, mi\-|* se- re- re|
 (f3 =e) f4 | c2 c2 d2 de | e2 ee e2 e2 | c4 c2 e2 | g2 fe (d2 e2-) | (e2 d2) e4 | z4 z2 e2 | %13
w: no\- * bis.|A- gnus De- i, qui|tol- lis pec- ca- ta|mun- di, mi-|se- re- re no\- *|* * bis.|Qui|
 c2 ce f2 f2 | d2 dd e2 ee | _A3 A F4 | E2 e4 e2 | e4 d4- | d4 z2 d2- | d2 d2 c2 B2 | c4 d8 |] %21
w: tol- lis pec- ca- ta|mun- di, qui tol- lis pec-|ca- ta mun-|di, do- na|no- bis,|* do\-|* na no- bis|pa- cem.|

